public/assets/instagram.svg

<svg xmlns="http://www.w3.org/2000/svg"  viewBox="0 0 50 50" width="50px" height="50px"><path d="M 16 3 C 8.8324839 3 3 8.8324839 3 16 L 3 34 C 3 41.167516 8.8324839 47 16 47 L 34 47 C 41.167516 47 47 41.167516 47 34 L 47 16 C 47 8.8324839 41.167516 3 34 3 L 16 3 z M 16 5 L 34 5 C 40.086484 5 45 9.9135161 45 16 L 45 34 C 45 40.086484 40.086484 45 34 45 L 16 45 C 9.9135161 45 5 40.086484 5 34 L 5 16 C 5 9.9135161 9.9135161 5 16 5 z M 37 11 A 2 2 0 0 0 35 13 A 2 2 0 0 0 37 15 A 2 2 0 0 0 39 13 A 2 2 0 0 0 37 11 z M 25 14 C 18.936712 14 14 18.936712 14 25 C 14 31.063288 18.936712 36 25 36 C 31.063288 36 36 31.063288 36 25 C 36 18.936712 31.063288 14 25 14 z M 25 16 C 29.982407 16 34 20.017593 34 25 C 34 29.982407 29.982407 34 25 34 C 20.017593 34 16 29.982407 16 25 C 16 20.017593 20.017593 16 25 16 z" fill="white"/></svg>

<svg xmlns="http://www.w3.org/2000/svg" width="50" height="50"><path fill="#fff" d="M16 3C8.832 3 3 8.832 3 16v18c0 7.168 5.832 13 13 13h18c7.168 0 13-5.832 13-13V16c0-7.168-5.832-13-13-13H16zm0 2h18c6.086 0 11 4.914 11 11v18c0 6.086-4.914 11-11 11H16C9.914 45 5 40.086 5 34V16C5 9.914 9.914 5 16 5zm21 6a2 2 0 0 0-2 2 2 2 0 0 0 2 2 2 2 0 0 0 2-2 2 2 0 0 0-2-2zm-12 3c-6.063 0-11 4.937-11 11s4.937 11 11 11 11-4.937 11-11-4.937-11-11-11zm0 2c4.982 0 9 4.018 9 9s-4.018 9-9 9-9-4.018-9-9 4.018-9 9-9z"/></svg>
